X: 21180
T: Katie Goes To Granny
R: reel
M: 4/4
K: Amajor
|:edce dB(3BBB|cBAc BGED|CA,CE A2Bc|dfec Bcdf|
eAce dB(3BBB|BccA BGED|CA,CE ABcA|1 dBGB ABcd:|2 dBGB A2cA||
|:BGEG Bcdf|eA(3cBA eAcA|GABc defg|aA(3AAA eAcA|
GABc defA|eAcA eAcA|BGEG Bcdf|1 ecdB A2cA:|2 ecdB ABcd||

